X:19
T:Bransle des chevaulx
R:Branle des chevaux
C:Thoinot Arbeau
O:16e sicle
M:C|
L:1/4
Q:1/2=120
K:Bb
V:1
B>c dd | edce | dcBA | G2F2 | B>cdd | edce | dBc2 | B4 |
fe/d/ cc/d/ |  ed/c/ Bd | cBAB | c2c2 | fe/d/ cc/d/ | ed/c/ Bd | cBBA | B4 |:
_dc/B/ dc/B/ | _ABc2 | FG_AB | c_dcB  |_dc/B/ dc/B/ | _ABc2 | FG_AB | BAB2 :|
